X: 3010
T: The Banditti; a Round O.
%R: march
B: Henry Playford "Apollo's Banquet", London 1687 (5th Edition)
F: https://archive.org/details/apollosbanquetco01rugg
Z: 2017 John Chambers <jc:trillian.mit.edu>
M: C|
L: 1/8
K: Bb
% - - - - - - - - - -
g2 |\
^f2 d4 c2 | =B4 d4 | e2 c4 de | f4 g2ab |\
^f2 d4 c2 | =B4 d4 | d2 g4 ^f2 | g6 :: ga |\
b2ag f3e | d4 def2 |
e2d2 c3B/c/ | d2 B4 f2 |\
b4 (g3f/g/) | a2=e2 (ef)g2 | f2(=ed) =e2(d^c) | d6 g2 |\
^f2 d4 c2 | =B4 d4 | e2 c4 de | f4 g2ab |
^f2 d4 c2 | =B4 d4 | d2 g4 ^f2 | g8 |\
G2 B4 c2 | d3e f4 | A2 c4 d2 | e4 d4 |\
g4 f3e | d3e f2g2 | c2de c3B | HB6 |]
% - - - - - - - - - -

%%sep 1 1 500
%%sep 1 1 500

